svgs/thin/square-e.svg

<svg xmlns="http://www.w3.org/2000/svg" viewBox="0 0 448 512"><!--! Font Awesome Pro 6.6.0 by @fontawesome - https://fontawesome.com License - https://fontawesome.com/license (Commercial License) Copyright 2024 Fonticons, Inc. --><path d="M64 48C37.5 48 16 69.5 16 96l0 320c0 26.5 21.5 48 48 48l320 0c26.5 0 48-21.5 48-48l0-320c0-26.5-21.5-48-48-48L64 48zM0 96C0 60.7 28.7 32 64 32l320 0c35.3 0 64 28.7 64 64l0 320c0 35.3-28.7 64-64 64L64 480c-35.3 0-64-28.7-64-64L0 96zm152 32l160 0c4.4 0 8 3.6 8 8s-3.6 8-8 8l-160 0c-4.4 0-8 3.6-8 8l0 96 128 0c4.4 0 8 3.6 8 8s-3.6 8-8 8l-128 0 0 96c0 4.4 3.6 8 8 8l160 0c4.4 0 8 3.6 8 8s-3.6 8-8 8l-160 0c-13.3 0-24-10.7-24-24l0-104 0-104c0-13.3 10.7-24 24-24z"/></svg>

<svg xmlns="http://www.w3.org/2000/svg" viewBox="0 0 448 512"><!--! Font Awesome Pro 6.4.0 by @fontawesome - https://fontawesome.com License - https://fontawesome.com/license (Commercial License) Copyright 2023 Fonticons, Inc. --><path d="M64 48C37.5 48 16 69.5 16 96V416c0 26.5 21.5 48 48 48H384c26.5 0 48-21.5 48-48V96c0-26.5-21.5-48-48-48H64zM0 96C0 60.7 28.7 32 64 32H384c35.3 0 64 28.7 64 64V416c0 35.3-28.7 64-64 64H64c-35.3 0-64-28.7-64-64V96zm152 32H312c4.4 0 8 3.6 8 8s-3.6 8-8 8H152c-4.4 0-8 3.6-8 8v96H272c4.4 0 8 3.6 8 8s-3.6 8-8 8H144v96c0 4.4 3.6 8 8 8H312c4.4 0 8 3.6 8 8s-3.6 8-8 8H152c-13.3 0-24-10.7-24-24V256 152c0-13.3 10.7-24 24-24z"/></svg>
